static/assets/images/icons/crosshair.svg

<svg width="256" height="256" viewBox="0 0 256 256" fill="none" xmlns="http://www.w3.org/2000/svg">
<path d="M35.4074 101.333C31.3164 101.333 28 98.0169 28 93.9259V68.7407C28 46.2403 46.2403 28 68.7407 28H93.9259C98.0169 28 101.333 31.3164 101.333 35.4074V46.5185C101.333 50.6095 98.0169 53.9259 93.9259 53.9259H72.4444C62.2169 53.9259 53.9259 62.2169 53.9259 72.4444V93.9259C53.9259 98.0169 50.6095 101.333 46.5185 101.333H35.4074Z" fill="#040404"/>
<path d="M162.074 53.9259C157.983 53.9259 154.667 50.6095 154.667 46.5185V35.4074C154.667 31.3164 157.983 28 162.074 28H187.259C209.76 28 228 46.2403 228 68.7407V93.9259C228 98.0169 224.684 101.333 220.593 101.333H209.481C205.39 101.333 202.074 98.0169 202.074 93.9259V72.4444C202.074 62.2169 193.783 53.9259 183.556 53.9259H162.074Z" fill="#040404"/>
<path d="M68.7407 228C46.2403 228 28 209.76 28 187.259V162.074C28 157.983 31.3164 154.667 35.4074 154.667H46.5185C50.6095 154.667 53.9259 157.983 53.9259 162.074V183.556C53.9259 193.783 62.2169 202.074 72.4444 202.074H93.9259C98.0169 202.074 101.333 205.39 101.333 209.481V220.593C101.333 224.684 98.0169 228 93.9259 228H68.7407Z" fill="#040404"/>
<path d="M183.556 202.074C193.783 202.074 202.074 193.783 202.074 183.556V162.074C202.074 157.983 205.39 154.667 209.481 154.667H220.593C224.684 154.667 228 157.983 228 162.074V187.259C228 209.76 209.76 228 187.259 228H162.074C157.983 228 154.667 224.684 154.667 220.593V209.481C154.667 205.39 157.983 202.074 162.074 202.074H183.556Z" fill="#040404"/>
<path fill-rule="evenodd" clip-rule="evenodd" d="M122.05 75.7778C117.959 75.7778 114.642 79.0942 114.642 83.1852V107.235C114.642 111.326 111.326 114.642 107.235 114.642H83.1852C79.0942 114.642 75.7778 117.959 75.7778 122.05V133.95C75.7778 138.041 79.0942 141.358 83.1852 141.358H107.235C111.326 141.358 114.642 144.674 114.642 148.765V172.815C114.642 176.906 117.959 180.222 122.05 180.222H133.95C138.041 180.222 141.358 176.906 141.358 172.815V148.765C141.358 144.674 144.674 141.358 148.765 141.358H172.815C176.906 141.358 180.222 138.041 180.222 133.95V122.05C180.222 117.959 176.906 114.642 172.815 114.642H148.765C144.674 114.642 141.358 111.326 141.358 107.235V83.1852C141.358 79.0942 138.041 75.7778 133.95 75.7778H122.05ZM125.037 138.37C120.946 138.37 117.63 135.054 117.63 130.963V125.037C117.63 120.946 120.946 117.63 125.037 117.63H130.963C135.054 117.63 138.37 120.946 138.37 125.037V130.963C138.37 135.054 135.054 138.37 130.963 138.37H125.037Z" fill="#040404"/>
</svg>

<svg xmlns="http://www.w3.org/2000/svg" fill="none" viewBox="0 0 256 256"><path fill="#040404" d="M35.407 101.333A7.407 7.407 0 0 1 28 93.926V68.74C28 46.24 46.24 28 68.74 28h25.186a7.407 7.407 0 0 1 7.407 7.407V46.52a7.407 7.407 0 0 1-7.407 7.407H72.444c-10.227 0-18.518 8.29-18.518 18.518v21.482a7.407 7.407 0 0 1-7.407 7.407zm126.667-47.407a7.407 7.407 0 0 1-7.407-7.407V35.407A7.407 7.407 0 0 1 162.074 28h25.185C209.76 28 228 46.24 228 68.74v25.186a7.407 7.407 0 0 1-7.407 7.407h-11.112a7.407 7.407 0 0 1-7.407-7.407V72.444c0-10.227-8.291-18.518-18.518-18.518zM68.74 228C46.24 228 28 209.76 28 187.259v-25.185a7.407 7.407 0 0 1 7.407-7.407H46.52a7.407 7.407 0 0 1 7.407 7.407v21.482c0 10.227 8.29 18.518 18.518 18.518h21.482a7.407 7.407 0 0 1 7.407 7.407v11.112A7.407 7.407 0 0 1 93.926 228zm114.816-25.926c10.227 0 18.518-8.291 18.518-18.518v-21.482a7.407 7.407 0 0 1 7.407-7.407h11.112a7.407 7.407 0 0 1 7.407 7.407v25.185C228 209.76 209.76 228 187.259 228h-25.185a7.407 7.407 0 0 1-7.407-7.407v-11.112a7.407 7.407 0 0 1 7.407-7.407z"/><path fill="#040404" fill-rule="evenodd" d="M122.05 75.778a7.41 7.41 0 0 0-7.408 7.407v24.05a7.407 7.407 0 0 1-7.407 7.407h-24.05a7.41 7.41 0 0 0-7.407 7.408v11.9a7.41 7.41 0 0 0 7.407 7.408h24.05a7.407 7.407 0 0 1 7.407 7.407v24.05a7.41 7.41 0 0 0 7.408 7.407h11.9a7.41 7.41 0 0 0 7.408-7.407v-24.05a7.407 7.407 0 0 1 7.407-7.407h24.05a7.41 7.41 0 0 0 7.407-7.408v-11.9a7.41 7.41 0 0 0-7.407-7.408h-24.05a7.407 7.407 0 0 1-7.407-7.407v-24.05a7.41 7.41 0 0 0-7.408-7.407zm2.987 62.592a7.407 7.407 0 0 1-7.407-7.407v-5.926a7.407 7.407 0 0 1 7.407-7.407h5.926a7.407 7.407 0 0 1 7.407 7.407v5.926a7.407 7.407 0 0 1-7.407 7.407z" clip-rule="evenodd"/></svg>
